X:1
T: Garcon Volage
C:
R:Jig
Q:180
K:G
M:6/8
L:1/16
|:A2|G2d2B2 G2d2B2|A2d2c2 A2d2c2|B2d2g2 g2f2g2|b2a2a2 a4A2|
G2d2B2 G2d2B2|A2d2c2 A2d2c2|B2a2g2 f2e2f2|1a2g2g2 g6:|2a2g2g2 g2f2g2|
b6 g6|a2a2a2 a2^g2a2|c'6 f6|a2g2g2 g2f2g2|
b6 g6|a2a2a2 a2^g2a2|c'6 f6|g2b2a2 g2f2e2|
|:d6 c2B2c2|d6 c2B2c2|d4B2 g4d2|b2a2g2 f2e2d2|
c6 A2^G2A2|c6 A2F2A2|c2e2d2 c2B2A2|1G2B2A2 G2B2c2:|2G2B2A2 G4||
